examples/modular/sub1.gsn.svg

<?xml version="1.0" encoding="UTF-8"?>
<svg class="gsndiagram" viewBox="0 0 570 421" xmlns="http://www.w3.org/2000/svg">
<defs>
<marker id="supportedby_arrow" markerHeight="9" markerUnits="userSpaceOnUse" markerWidth="10" orient="auto-start-reverse" refX="0" refY="4.5">
<polyline fill="black" points="0 0, 10 4.5, 0 9"/>
</marker>
<marker id="incontextof_arrow" markerHeight="9" markerUnits="userSpaceOnUse" markerWidth="10" orient="auto-start-reverse" refX="0" refY="4.5">
<polyline fill-opacity="0" points="0 0, 10 4.5, 0 9, 0 0" stroke="black" stroke-width="1"/>
</marker>
<symbol id="module_icon">
<rect fill="lightgrey" height="5" stroke="black" stroke-width="1" width="10" x="0" y="0"/>
<rect fill="lightgrey" height="10" stroke="black" stroke-width="1" width="20" x="0" y="5"/>
</symbol>
</defs>
<style>
@import url(https://github.com/jonasthewolf/gsn2x/blob/3439402d093ba54af4771b295e78f2488bd1b978/examples/modular/modular.css)
</style>
<a href="index.gsn.svg#node_s1">
<g class="gsn_module_main gsnelem gsnstgy" id="node_s1">
<title>S1</title>
<path class="border" d="M157,37 L305,37 L291,81 L143,81 z" fill-opacity="0" stroke="black" stroke-width="1"/>
<text font-family="Liberation Sans, Arial, sans-serif" font-size="12px" font-weight="bold" x="164" y="57">S1</text>
<text font-family="Liberation Sans, Arial, sans-serif" font-size="12px" x="160" y="75">Divide and Conquer</text>
</g>
</a>
<g class="gsn_module_sub1 gsnelem gsnasmp" id="node_a1">
<title>A1</title>
<path class="border" d="M338,59 a44,32,0,1,0,88,0 a44,32,0,1,0,-88,0 z" fill-opacity="0" stroke="black" stroke-width="1"/>
<text font-family="Liberation Sans, Arial, sans-serif" font-size="12px" font-weight="bold" x="358" y="51">A1</text>
<text font-family="Liberation Sans, Arial, sans-serif" font-size="12px" x="358" y="69">TestABC</text>
<text font-family="Liberation Sans, Arial, sans-serif" font-size="12px" font-weight="bold" x="421" y="86">A</text>
</g>
<a href="index.gsn.svg#node_g1">
<g class="gsn_module_main gsnelem gsnawaygoal" id="node_g1">
<title>G1</title>
<path class="border" d="M466,71 V20 H550 V71" fill-opacity="0" stroke="black" stroke-width="1"/>
<text font-family="Liberation Sans, Arial, sans-serif" font-size="12px" font-weight="bold" x="473" y="40">G1</text>
<text font-family="Liberation Sans, Arial, sans-serif" font-size="12px" x="473" y="58">Main Goal</text>
<a href="index.gsn.svg#node_g1">
<path class="border" d="M466,71 h84 v27 h-84 z" fill-opacity="0" stroke="black" stroke-width="1"/>
<text font-family="Liberation Sans, Arial, sans-serif" font-size="12px" font-weight="bold" x="500" y="91">Main</text>
</a>
<use href="#module_icon" x="473" y="78"/>
</g>
</a>
<a href="index.gsn.svg#node_j1">
<g class="gsn_module_main gsnelem gsnawayjust" id="node_j1">
<title>J1</title>
<path class="border" d="M20,211 V160 A45,22,0,0,1,110,160 V211" fill-opacity="0" stroke="black" stroke-width="1"/>
<text font-family="Liberation Sans, Arial, sans-serif" font-size="12px" font-weight="bold" x="27" y="180">J1</text>
<text font-family="Liberation Sans, Arial, sans-serif" font-size="12px" x="27" y="198">Some Context</text>
<a href="index.gsn.svg#node_j1">
<path class="border" d="M20,211 h90 v27 h-90 z" fill-opacity="0" stroke="black" stroke-width="1"/>
<text font-family="Liberation Sans, Arial, sans-serif" font-size="12px" font-weight="bold" x="54" y="231">Main</text>
</a>
<use href="#module_icon" x="27" y="218"/>
<text font-family="Liberation Sans, Arial, sans-serif" font-size="12px" font-weight="bold" x="103" y="138">J</text>
</g>
</a>
<g class="gsn_module_sub1 gsnelem gsngoal" id="node_g3">
<title>G3</title>
<path class="border" d="M150,166 L298,166 L298,210 L150,210 z" fill-opacity="0" stroke="black" stroke-width="1"/>
<text font-family="Liberation Sans, Arial, sans-serif" font-size="12px" font-weight="bold" x="157" y="186">G3</text>
<text font-family="Liberation Sans, Arial, sans-serif" font-size="12px" x="157" y="204">Conquer the submodules</text>
</g>
<a href="sub3.gsn.svg#node_c2">
<g class="gsn_module_sub3 gsnelem gsnawayctxt" id="node_c2">
<title>C2</title>
<path class="border" d="M338,204 V153 C338,149,342,145,346,145 h68 C418,145,422,149,422,153 V204" fill-opacity="0" stroke="black" stroke-width="1"/>
<text font-family="Liberation Sans, Arial, sans-serif" font-size="12px" font-weight="bold" x="345" y="173">C2</text>
<text font-family="Liberation Sans, Arial, sans-serif" font-size="12px" x="345" y="191">Context 2</text>
<a href="sub3.gsn.svg#node_c2">
<path class="border" d="M338,204 h84 v27 h-84 z" fill-opacity="0" stroke="black" stroke-width="1"/>
<text font-family="Liberation Sans, Arial, sans-serif" font-size="12px" font-weight="bold" x="372" y="224">Sub3</text>
</a>
<use href="#module_icon" x="345" y="211"/>
</g>
</a>
<a href="sub3.gsn.svg#node_sn1">
<g class="gsn_module_sub3 gsnelem gsnawaysltn" id="node_sn1">
<title>Sn1</title>
<path class="border" d="M182,371 V320 A42,42,0,0,1,266,320 V371" fill-opacity="0" stroke="black" stroke-width="1"/>
<text font-family="Liberation Sans, Arial, sans-serif" font-size="12px" font-weight="bold" x="189" y="340">Sn1</text>
<text font-family="Liberation Sans, Arial, sans-serif" font-size="12px" x="189" y="358">Solution 1</text>
<a href="sub3.gsn.svg#node_sn1">
<path class="border" d="M182,371 h84 v27 h-84 z" fill-opacity="0" stroke="black" stroke-width="1"/>
<text font-family="Liberation Sans, Arial, sans-serif" font-size="12px" font-weight="bold" x="216" y="391">Sub3</text>
</a>
<use href="#module_icon" x="189" y="378"/>
</g>
</a>
<path class="gsnedge gsninctxt" d="M466,59 C436,59,456,59,436,59" fill-opacity="0" marker-end="url(#incontextof_arrow)" stroke="black" stroke-width="1"/>
<path class="gsnedge gsninctxt" d="M298,188 C328,188,308,188,328,188" fill-opacity="0" marker-end="url(#incontextof_arrow)" stroke="black" stroke-width="1"/>
<path class="gsnedge gsninctxt" d="M150,188 C120,188,140,188,120,188" fill-opacity="0" marker-end="url(#incontextof_arrow)" stroke="black" stroke-width="1"/>
<path class="gsnedge gsninspby" d="M224,210 C224,240,224,248,224,268" fill-opacity="0" marker-end="url(#supportedby_arrow)" stroke="black" stroke-width="1"/>
<path class="gsnedge gsninspby" d="M224,81 C224,111,224,136,224,156" fill-opacity="0" marker-end="url(#supportedby_arrow)" stroke="black" stroke-width="1"/>
</svg>

<?xml version="1.0" encoding="UTF-8"?>
<svg class="gsndiagram" viewBox="0 0 570 421" xmlns="http://www.w3.org/2000/svg">
<defs>
<marker id="supportedby_arrow" markerHeight="9" markerUnits="userSpaceOnUse" markerWidth="10" orient="auto-start-reverse" refX="0" refY="4.5">
<polyline fill="black" points="0 0, 10 4.5, 0 9"/>
</marker>
<marker id="incontextof_arrow" markerHeight="9" markerUnits="userSpaceOnUse" markerWidth="10" orient="auto-start-reverse" refX="0" refY="4.5">
<polyline fill-opacity="0" points="0 0, 10 4.5, 0 9, 0 0" stroke="black" stroke-width="1"/>
</marker>
<symbol id="module_icon">
<rect fill="lightgrey" height="5" stroke="black" stroke-width="1" width="10" x="0" y="0"/>
<rect fill="lightgrey" height="10" stroke="black" stroke-width="1" width="20" x="0" y="5"/>
</symbol>
</defs>
<style>
@import url(https://github.com/jonasthewolf/gsn2x/blob/3439402d093ba54af4771b295e78f2488bd1b978/examples/modular/modular.css)
</style>
<a href="index.gsn.svg#node_s1">
<g class="gsn_module_main gsnelem gsnstgy" id="node_s1">
<title>S1</title>
<path class="border" d="M157,37 L305,37 L291,81 L143,81 z" fill-opacity="0" stroke="black" stroke-width="1"/>
<text font-family="Liberation Sans, Arial, sans-serif" font-size="12px" font-weight="bold" x="164" y="57">S1</text>
<text font-family="Liberation Sans, Arial, sans-serif" font-size="12px" x="160" y="75">Divide and Conquer</text>
</g>
</a>
<g class="gsn_module_sub1 gsnelem gsnasmp" id="node_a1">
<title>A1</title>
<path class="border" d="M338,59 a44,32,0,1,0,88,0 a44,32,0,1,0,-88,0 z" fill-opacity="0" stroke="black" stroke-width="1"/>
<text font-family="Liberation Sans, Arial, sans-serif" font-size="12px" font-weight="bold" x="358" y="51">A1</text>
<text font-family="Liberation Sans, Arial, sans-serif" font-size="12px" x="358" y="69">TestABC</text>
<text font-family="Liberation Sans, Arial, sans-serif" font-size="12px" font-weight="bold" x="421" y="86">A</text>
</g>
<a href="index.gsn.svg#node_g1">
<g class="gsn_module_main gsnelem gsnawaygoal" id="node_g1">
<title>G1</title>
<path class="border" d="M466,71 V20 H550 V71" fill-opacity="0" stroke="black" stroke-width="1"/>
<text font-family="Liberation Sans, Arial, sans-serif" font-size="12px" font-weight="bold" x="473" y="40">G1</text>
<text font-family="Liberation Sans, Arial, sans-serif" font-size="12px" x="473" y="58">Main Goal</text>
<a href="index.gsn.svg#node_g1">
<path class="border" d="M466,71 H550 v27 H466 z" fill-opacity="0" stroke="black" stroke-width="1"/>
<text font-family="Liberation Sans, Arial, sans-serif" font-size="12px" font-weight="bold" x="500" y="91">Main</text>
</a>
<use href="#module_icon" x="473" y="78"/>
</g>
</a>
<a href="index.gsn.svg#node_j1">
<g class="gsn_module_main gsnelem gsnawayjust" id="node_j1">
<title>J1</title>
<path class="border" d="M20,211 V160 A45,22,0,0,1,110,160 V211" fill-opacity="0" stroke="black" stroke-width="1"/>
<text font-family="Liberation Sans, Arial, sans-serif" font-size="12px" font-weight="bold" x="27" y="180">J1</text>
<text font-family="Liberation Sans, Arial, sans-serif" font-size="12px" x="27" y="198">Some Context</text>
<a href="index.gsn.svg#node_j1">
<path class="border" d="M20,211 H110 v27 H20 z" fill-opacity="0" stroke="black" stroke-width="1"/>
<text font-family="Liberation Sans, Arial, sans-serif" font-size="12px" font-weight="bold" x="54" y="231">Main</text>
</a>
<use href="#module_icon" x="27" y="218"/>
<text font-family="Liberation Sans, Arial, sans-serif" font-size="12px" font-weight="bold" x="103" y="138">J</text>
</g>
</a>
<g class="gsn_module_sub1 gsnelem gsngoal" id="node_g3">
<title>G3</title>
<path class="border" d="M150,166 L298,166 L298,210 L150,210 z" fill-opacity="0" stroke="black" stroke-width="1"/>
<text font-family="Liberation Sans, Arial, sans-serif" font-size="12px" font-weight="bold" x="157" y="186">G3</text>
<text font-family="Liberation Sans, Arial, sans-serif" font-size="12px" x="157" y="204">Conquer the submodules</text>
</g>
<a href="sub3.gsn.svg#node_c2">
<g class="gsn_module_sub3 gsnelem gsnawayctxt" id="node_c2">
<title>C2</title>
<path class="border" d="M338,204 V153 C338,149,342,145,346,145 h68 C418,145,422,149,422,153 V204" fill-opacity="0" stroke="black" stroke-width="1"/>
<text font-family="Liberation Sans, Arial, sans-serif" font-size="12px" font-weight="bold" x="345" y="173">C2</text>
<text font-family="Liberation Sans, Arial, sans-serif" font-size="12px" x="345" y="191">Context 2</text>
<a href="sub3.gsn.svg#node_c2">
<path class="border" d="M338,204 H422 v27 H338 z" fill-opacity="0" stroke="black" stroke-width="1"/>
<text font-family="Liberation Sans, Arial, sans-serif" font-size="12px" font-weight="bold" x="372" y="224">Sub3</text>
</a>
<use href="#module_icon" x="345" y="211"/>
</g>
</a>
<a href="sub3.gsn.svg#node_sn1">
<g class="gsn_module_sub3 gsnelem gsnawaysltn" id="node_sn1">
<title>Sn1</title>
<path class="border" d="M182,371 V320 A42,42,0,0,1,266,320 V371" fill-opacity="0" stroke="black" stroke-width="1"/>
<text font-family="Liberation Sans, Arial, sans-serif" font-size="12px" font-weight="bold" x="189" y="340">Sn1</text>
<text font-family="Liberation Sans, Arial, sans-serif" font-size="12px" x="189" y="358">Solution 1</text>
<a href="sub3.gsn.svg#node_sn1">
<path class="border" d="M182,371 H266 v27 H182 z" fill-opacity="0" stroke="black" stroke-width="1"/>
<text font-family="Liberation Sans, Arial, sans-serif" font-size="12px" font-weight="bold" x="216" y="391">Sub3</text>
</a>
<use href="#module_icon" x="189" y="378"/>
</g>
</a>
<path class="gsnedge gsninctxt" d="M466,59 C436,59,456,59,436,59" fill-opacity="0" marker-end="url(#incontextof_arrow)" stroke="black" stroke-width="1"/>
<path class="gsnedge gsninctxt" d="M298,188 C328,188,308,188,328,188" fill-opacity="0" marker-end="url(#incontextof_arrow)" stroke="black" stroke-width="1"/>
<path class="gsnedge gsninctxt" d="M150,188 C120,188,140,188,120,188" fill-opacity="0" marker-end="url(#incontextof_arrow)" stroke="black" stroke-width="1"/>
<path class="gsnedge gsninspby" d="M224,210 C224,240,224,248,224,268" fill-opacity="0" marker-end="url(#supportedby_arrow)" stroke="black" stroke-width="1"/>
<path class="gsnedge gsninspby" d="M224,81 C224,111,224,136,224,156" fill-opacity="0" marker-end="url(#supportedby_arrow)" stroke="black" stroke-width="1"/>
</svg>
